X: 1029
T: Hicaz Örnek-öz
C: Rûhî Ayangil
O: Turkey
F: http://compmusic.upf.edu/node/140
N: hicaz--ornek-oz--senginsemai--1--ruhi_ayangil
N: makam= hicaz
N: form= ornek-oz
N: usul= senginsemai = 6/4
M: 6/4
L: 1/16
K: C _7/8B ^f ^c 
Q: 1/4=60
%%MIDI tuningsystem comma53
A4 =f2d2 e4 B2G2 B4 A2G2  | f4 g2e2 c4 e2=f2 d8  | \
w:   |   | 
B2e2 c4 d2B2 G2A2 B8  | 
w:   | 
A2a2 g2=f2 e2d2 c2B2 A8  | |


